icon-themes/breeze_svg/sw/res/sc20183.svg

<svg viewBox="0 0 16 16" xmlns="http://www.w3.org/2000/svg"><path d="m4 2v8 1c0 1.656846 1.3431539 3 3 3h2c1.65684 0 3-1.34316 3-3v-1-6c0-1.10457-.89543-2-2-2h-2c-1.10457 0-2 .89543-2 2v6c0 1.10457.89543 2 2 2s2-.89543 2-2v-6h-1v6c0 .55228-.44772 1-1 1s-1-.44772-1-1v-6c0-.55228.44772-1 1-1h2c.55228 0 1 .44772 1 1v6 1c0 1.10459-.89544 2-2 2h-2c-1.1045695 0-2-.89543-2-2v-1-1-.21875-6.78125z" fill="#4d4d4d"/></svg>

<svg xmlns="http://www.w3.org/2000/svg" viewBox="0 0 16 16">
 <path 
     style="fill:#4d4d4d" 
     d="M 4 2 L 4 10 L 4 11 C 4 12.656846 5.3431539 14 7 14 L 9 14 C 10.65684 14 12 12.65684 12 11 L 12 10 L 12 4 C 12 2.89543 11.10457 2 10 2 L 8 2 C 6.89543 2 6 2.89543 6 4 L 6 10 C 6 11.10457 6.89543 12 8 12 C 9.10457 12 10 11.10457 10 10 L 10 4 L 9 4 L 9 10 C 9 10.55228 8.55228 11 8 11 C 7.44772 11 7 10.55228 7 10 L 7 4 C 7 3.44772 7.44772 3 8 3 L 10 3 C 10.55228 3 11 3.44772 11 4 L 11 10 L 11 11 C 11 12.10459 10.10456 13 9 13 L 7 13 C 5.8954305 13 5 12.10457 5 11 L 5 10 L 5 9 L 5 8.78125 L 5 2 L 4 2 z "
     />
</svg>
